X: 12
T: Paddy Fahey's
C: Paddy Fahey
Z: Jeff Rowan
S: https://thesession.org/tunes/463#setting54016
R: reel
M: 4/4
L: 1/8
K: Ddor
|:D2DE FEFG|AdcA d2de|fedf edcA|AcAG FDEC|
DCDE FEFG|AdcA d2de|fedf edcA|AcAG FDEC:|
|:Ad~d2 ^fded|c2Bc Gcec|Ad~d2 ^fded|cBcd edcA|
[1 Ad~d2 ^fded|c2Bc Gcec|Ad~d2 ^fded|Ad~d2 Ad~d2:|
[2 a2^ga AdcA|dcAG FDEC|D2DE FEFG|AdcA d4||

